ix/save-add_bold.svg

<svg viewBox="0 0 24 24" fill="none" xmlns="http://www.w3.org/2000/svg" height="1em" width="1em">
  <path d="M21.9998 5.11V16.47C21.9998 17.92 20.9598 18.53 19.6898 17.83L17.7598 16.75C17.5998 16.66 17.4998 16.49 17.4998 16.31V8.99C17.4998 6.45 15.4298 4.38 12.8898 4.38H8.81984C8.44984 4.38 8.18984 3.99 8.35984 3.67C8.87984 2.68 9.91984 2 11.1098 2H18.8898C20.5998 2 21.9998 3.4 21.9998 5.11Z" fill="#292D32"/>
  <path d="M12.89 5.87891H5.11C3.4 5.87891 2 7.27891 2 8.98891V20.3489C2 21.7989 3.04 22.4089 4.31 21.7089L8.24 19.5189C8.66 19.2889 9.34 19.2889 9.76 19.5189L13.69 21.7089C14.96 22.4089 16 21.7989 16 20.3489V8.98891C16 7.27891 14.6 5.87891 12.89 5.87891ZM11 12.7489H9.75V13.9989C9.75 14.4089 9.41 14.7489 9 14.7489C8.59 14.7489 8.25 14.4089 8.25 13.9989V12.7489H7C6.59 12.7489 6.25 12.4089 6.25 11.9989C6.25 11.5889 6.59 11.2489 7 11.2489H8.25V9.99891C8.25 9.58891 8.59 9.24891 9 9.24891C9.41 9.24891 9.75 9.58891 9.75 9.99891V11.2489H11C11.41 11.2489 11.75 11.5889 11.75 11.9989C11.75 12.4089 11.41 12.7489 11 12.7489Z" fill="#292D32"/>
</svg>

<svg viewBox="0 0 24 24" fill="none" xmlns="http://www.w3.org/2000/svg" height="1em" width="1em">
  <path d="M22 5.11v11.36c0 1.45-1.04 2.06-2.31 1.36l-1.93-1.08a.509.509 0 0 1-.26-.44V8.99c0-2.54-2.07-4.61-4.61-4.61H8.82c-.37 0-.63-.39-.46-.71C8.88 2.68 9.92 2 11.11 2h7.78C20.6 2 22 3.4 22 5.11Z" fill="#292D32"/>
  <path d="M12.89 5.879H5.11A3.12 3.12 0 0 0 2 8.989v11.36c0 1.45 1.04 2.06 2.31 1.36l3.93-2.19c.42-.23 1.1-.23 1.52 0l3.93 2.19c1.27.7 2.31.09 2.31-1.36V8.989c0-1.71-1.4-3.11-3.11-3.11ZM11 12.749H9.75v1.25c0 .41-.34.75-.75.75s-.75-.34-.75-.75v-1.25H7c-.41 0-.75-.34-.75-.75s.34-.75.75-.75h1.25v-1.25c0-.41.34-.75.75-.75s.75.34.75.75v1.25H11c.41 0 .75.34.75.75s-.34.75-.75.75Z" fill="#292D32"/>
</svg>
